Hatter-kde/actions/22/edit-table-insert-row-under.svg

<?xml version="1.0" encoding="UTF-8"?>
<svg viewBox="0 0 22 22" xmlns="http://www.w3.org/2000/svg">
 <defs id="defs3051">
  <style id="current-color-scheme" type="text/css">.ColorScheme-Text {
        color:#363636;
      }
      .ColorScheme-Highlight {
        color:#3daee9;
      }</style>
 </defs>
 <path class="ColorScheme-Text" d="m3 3v5h1v-4h2v3 1h1v-1-3h2v4h1v-4h2v4h1v-4h2v3 1h1v-1-3h2v4h1v-4-1h-15-1zm11 6 2.5 5 2.5-5h-5zm-11 5v5h1 8 1 2 1 2 1v-1-4h-1v4h-2v-4h-1v4h-2v-4h-1v4h-2v-4h-1v4h-2v-4h-1v4h-2v-4h-1z" fill="currentColor"/>
 <path class="ColorScheme-Highlight" d="m3 8v1h1 3.2812l-3.2812 3.2812v0.011719l-0.70703 0.70703h-0.29297v1h1 7 2v-1h-0.28125l0.28125-0.28125v-1.4375l-1.7188 1.7188h-0.28125-2.2812l4-4h0.28125v-1h-2-2.707-4.293-1m5.7188 1h2.2812 0.28125l-4 4h-2.5625l4-4" fill="currentColor"/>
</svg>

<svg xmlns="http://www.w3.org/2000/svg" viewBox="0 0 22 22">
  <defs id="defs3051">
    <style type="text/css" id="current-color-scheme">
      .ColorScheme-Text {
        color:#363636;
      }
      .ColorScheme-Highlight {
        color:#3daee9;
      }
      </style>
  </defs>
 <path 
    style="fill:currentColor;fill-opacity:1;stroke:none" 
     d="M 3 3 L 3 8 L 4 8 L 4 4 L 6 4 L 6 7 L 6 8 L 7 8 L 7 7 L 7 4 L 9 4 L 9 8 L 10 8 L 10 4 L 12 4 L 12 8 L 13 8 L 13 4 L 15 4 L 15 7 L 15 8 L 16 8 L 16 7 L 16 4 L 18 4 L 18 8 L 19 8 L 19 4 L 19 3 L 4 3 L 3 3 z M 14 9 L 16.5 14 L 19 9 L 14 9 z M 3 14 L 3 19 L 4 19 L 12 19 L 13 19 L 15 19 L 16 19 L 18 19 L 19 19 L 19 18 L 19 14 L 18 14 L 18 18 L 16 18 L 16 14 L 15 14 L 15 18 L 13 18 L 13 14 L 12 14 L 12 18 L 10 18 L 10 14 L 9 14 L 9 18 L 7 18 L 7 14 L 6 14 L 6 18 L 4 18 L 4 14 L 3 14 z "
    class="ColorScheme-Text"
    />  
  <path
     style="fill:currentColor;fill-opacity:1;stroke:none" 
     class="ColorScheme-Highlight"
     d="M 3,8 3,9 4,9 7.28125,9 4,12.28125 4,12.292969 3.292969,13 3,13 l 0,1 1,0 7,0 2,0 0,-1 -0.28125,0 L 13,12.71875 13,11.28125 11.28125,13 11,13 8.71875,13 11,10.71875 12.71875,9 13,9 13,8 11,8 8.292969,8 4,8 3,8 M 8.71875,9 11,9 11.28125,9 11,9.28125 7.28125,13 l -2.5625,0 4,-4" />
</svg>
